!!!COM: Paul Hindemith
!!!OTL: [T669A_Hin-w82p17hGm1-8]
**kern	**dynam	**kern	**dynam	**kern	**dynam	**kern	**dynam	**kern	**dynam	**kern	**dynam	**kern	**dynam	**kern	**dynam	**kern	**dynam	**kern	**dynam	**kern	**dynam	**kern	**dynam	**kern	**dynam	**kern	**dynam	**kern	**dynam	**kern	**dynam
*	*	*	*	*grp:B	*	*	*	*	*	*grp:A	*	*grp:A	*	*grp:C	*	*grp:C	*	*grp:A	*	*	*	*	*	*grp:B	*	*	*	*grp:B	*	*grp:B	*
*part16	*part16	*part15	*part15	*part14	*part14	*part13	*part13	*part12	*part12	*part11	*part11	*part10	*part10	*part9	*part9	*part8	*part8	*part7	*part7	*part6	*part6	*part5	*part5	*part4	*part4	*part3	*part3	*part2	*part2	*part1	*part1
*staff16	*	*staff15	*	*staff14	*	*staff13	*	*staff12	*	*staff11	*	*staff10	*	*staff9	*	*staff8	*	*staff7	*	*staff6	*	*staff5	*	*staff4	*	*staff3	*	*staff2	*	*staff1	*
*I"Double Bass	*	*I"Violoncello	*	*I"Viola	*	*I"Violin 2	*	*I"Violin 1	*	*I"Bass Drum	*	*I"Tuba	*	*I"Trombone 2. 3.	*	*I"Trombone 1.	*	*I"Horn in F 3. 4.	*	*I"Bassoon 1. 2.	*	*I"Bass Clarinet in Bb	*	*I"Clarinet in Bb 1. 2.	*	*I"English Horn	*	*I"Flute 1	*	*I"Piccolo	*
*I'Db.	*	*I'Vc.	*	*I'Vla.	*	*I'Vln. II	*	*I'Vln. I	*	*I'B.D.	*	*I'Tba.	*	*I'Tbn.	*	*I'Tbn.	*	*I'Hn.	*	*I'Bsn.	*	*I'B. Cl.	*	*I'Cl.	*	*I'C. A.	*	*I'Fl.	*	*I'Picc.	*
*ICstr	*	*ICstr	*	*ICstr	*	*ICstr	*	*ICstr	*	*ICidio	*	*ICbras	*	*ICbras	*	*ICbras	*	*ICbras	*	*ICww	*	*ICww	*	*ICww	*	*ICww	*	*ICww	*	*ICww	*
*Icbass	*	*Icello	*	*Iviola	*	*Ivioln	*	*Ivioln	*	*Ibdrum	*	*Ituba	*	*Itromt	*	*Itromt	*	*Icor	*	*Ifagot	*	*Iclarb	*	*Iclars	*	*Icangl	*	*Iflt	*	*Ipicco	*
*clefF4	*	*clefF4	*	*clefC3	*	*clefG2	*	*clefG2	*	*clefX	*	*clefF4	*	*clefF4	*	*clefF4	*	*clefF4	*	*clefF4	*	*clefF4	*	*clefG2	*	*clefG2	*	*clefG2	*	*clefG2	*
*ITrd7c12	*	*	*	*	*	*	*	*	*	*	*	*	*	*	*	*	*	*ITrd-3c-5	*	*	*	*ITrd1c2	*	*ITrd1c2	*	*ITrd4c7	*	*	*	*ITrd-7c-12	*
*k[]	*	*k[]	*	*k[]	*	*k[]	*	*k[]	*	*k[]	*	*k[]	*	*k[]	*	*k[]	*	*k[b-]	*	*k[]	*	*k[b-e-]	*	*k[b-e-]	*	*k[b-]	*	*k[]	*	*k[]	*
*	*	*	*	*	*	*	*	*	*	*C:	*	*	*	*	*	*	*	*	*	*	*	*	*	*	*	*	*	*	*	*	*
*M2/4	*	*M2/4	*	*M2/4	*	*M2/4	*	*M2/4	*	*M2/4	*	*M2/4	*	*M2/4	*	*M2/4	*	*M2/4	*	*M2/4	*	*M2/4	*	*M2/4	*	*M2/4	*	*M2/4	*	*M2/4	*
!!LO:REH:t=G
=1	=1	=1	=1	=1	=1	=1	=1	=1	=1	=1	=1	=1	=1	=1	=1	=1	=1	=1	=1	=1	=1	=1	=1	=1	=1	=1	=1	=1	=1	=1	=1
!	!	!	!	!	!	!	!	!	!	!	!	!	!	!	!	!	!	!LO:TX:a:t=a 2	!	!LO:TX:a:t=[a 2]	!	!	!LO:DY:ed=brack	!LO:TX:a:t=[a 2]	!LO:DY:ed=brack	!	!	!	!	!LO:TX:t=[[quarter]=108]	!
8ryy	4ryy	8ryy	4ryy	8A	.	8ryy	4ryy	8ryy	4ryy	8ryy	4ryy	8ryy	4ryy	8ryy	.	8ryy	.	8ryy	4ryy	8ryy	4ryy	8ryy	.	8A)j	.	8ryy	4ryy	4r	.	4r	.
8ryy	.	8ryy	.	8r	.	8ryy	.	8ryy	.	8ryy	.	8ryy	.	8ryy	4ryy	8ryy	4ryy	8ryy	.	8ryy	.	8ryy	.	8r	.	8ryy	.	.	.	.	.
4ryy	.	4ryy	.	[4f	4ryy	4ryy	.	4ryy	.	8ryy	.	8ryy	.	8ryy	.	8ryy	.	8ryy	.	4ryy	.	4ryy	4ryy	[4f	4ryy	4ryy	.	[4ccc	4ryy	[4aaa	4ryy
.	.	.	.	.	.	.	.	.	.	8ryy	.	8ryy	.	8ryy	.	8ryy	.	8ryy	.	.	.	.	.	.	.	.	.	.	.	.	.
=2	=2	=2	=2	=2	=2	=2	=2	=2	=2	=2	=2	=2	=2	=2	=2	=2	=2	=2	=2	=2	=2	=2	=2	=2	=2	=2	=2	=2	=2	=2	=2
2ryy	.	2ryy	.	8fL]	.	2ryy	.	2ryy	.	8ryy	.	8ryy	.	8ryy	.	8ryy	.	8ryy	.	2ryy	.	2ryy	.	8fL]	.	2ryy	.	8cccL]	.	8aaaL]	.
.	.	.	.	16eL	.	.	.	.	.	8ryy	.	8ryy	.	8ryy	.	8ryy	.	8ryy	.	.	.	.	.	16eXL	.	.	.	16bbL	.	16ggg#XL	.
.	.	.	.	16dJJ	.	.	.	.	.	.	.	.	.	.	.	.	.	.	.	.	.	.	.	16dJJ	.	.	.	16aaJJ	.	16fff#XJJ	.
.	.	.	.	(4c#Xt	.	.	.	.	.	8ryy	.	8ryy	.	8ryy	.	8ryy	.	8ryy	.	.	.	.	.	(4c#Xt	.	.	.	(4gg#Xt	.	(4eee#Xt	.
.	.	.	.	.	.	.	.	.	.	8ryy	.	8ryy	.	8ryy	.	8ryy	.	8ryy	.	.	.	.	.	.	.	.	.	.	.	.	.
=3	=3	=3	=3	=3	=3	=3	=3	=3	=3	=3	=3	=3	=3	=3	=3	=3	=3	=3	=3	=3	=3	=3	=3	=3	=3	=3	=3	=3	=3	=3	=3
2ryy	.	2ryy	.	8dL)	.	2ryy	.	2ryy	.	4ryy	.	4ryy	.	8ryy	.	8ryy	.	4ryy	.	2ryy	.	2ryy	.	8dL)	.	2ryy	.	8aaL)	.	8fff#XL)	.
.	.	.	.	8AJ	.	.	.	.	.	.	.	.	.	8ryy	.	8ryy	.	.	.	.	.	.	.	8AJ	.	.	.	8eeJ	.	8ccc#XJ	.
.	.	.	.	[4B-X^	.	.	.	.	.	8ryy	.	8ryy	.	8ryy	.	8ryy	.	8ryy	.	.	.	.	.	[4B-	.	.	.	[4ff	.	[4ddd^	.
.	.	.	.	.	.	.	.	.	.	8ryy	.	8ryy	.	8ryy	.	8ryy	.	8ryy	.	.	.	.	.	.	.	.	.	.	.	.	.
=4	=4	=4	=4	=4	=4	=4	=4	=4	=4	=4	=4	=4	=4	=4	=4	=4	=4	=4	=4	=4	=4	=4	=4	=4	=4	=4	=4	=4	=4	=4	=4
2ryy	.	2ryy	.	8B-L]	.	2ryy	.	2ryy	.	8ryy	.	8ryy	.	8ryy	.	8ryy	.	8ryy	.	2ryy	.	2ryy	.	8B-L]	.	2ryy	.	8ffL]	.	8dddL]	.
.	.	.	.	16AL	.	.	.	.	.	8ryy	.	8ryy	.	8ryy	.	8ryy	.	8ryy	.	.	.	.	.	16AL	.	.	.	16eeL	.	16ccc#XL	.
.	.	.	.	16GJJ	.	.	.	.	.	.	.	.	.	.	.	.	.	.	.	.	.	.	.	16GJJ	.	.	.	16ddJJ	.	16bbJJ	.
.	.	.	.	(8FL	.	.	.	.	.	8ryy	.	8ryy	.	8ryy	.	8ryy	.	8ryy	.	.	.	.	.	(8FL	.	.	.	(8ccL	.	(8aaL	.
.	.	.	.	8EJ)	.	.	.	.	.	8ryy	.	8ryy	.	8ryy	.	8ryy	.	8ryy	.	.	.	.	.	8EXJ)	.	.	.	8bJ)	.	8gg#XJ)	.
=5	=5	=5	=5	=5	=5	=5	=5	=5	=5	=5	=5	=5	=5	=5	=5	=5	=5	=5	=5	=5	=5	=5	=5	=5	=5	=5	=5	=5	=5	=5	=5
2ryy	.	2ryy	.	8FL	.	2ryy	.	2ryy	.	8ryy	.	8ryy	.	8ryy	.	8ryy	.	8ryy	.	2ryy	.	2ryy	.	8FL	.	2ryy	.	8ccL	.	8aaL	.
.	.	.	.	16DL	.	.	.	.	.	8ryy	.	8ryy	.	8ryy	.	8ryy	.	8ryy	.	.	.	.	.	16DL	.	.	.	16aL	.	16ff#XL	.
.	.	.	.	16EJJ	.	.	.	.	.	.	.	.	.	.	.	.	.	.	.	.	.	.	.	16EXJJ	.	.	.	16bJJ	.	16gg#XJJ	.
.	.	.	.	(8FL	.	.	.	.	.	4ryy	.	4ryy	.	8ryy	.	8ryy	.	4ryy	.	.	.	.	.	(8FL	.	.	.	(8ccL	.	(8aaL	.
.	.	.	.	8GJ)	.	.	.	.	.	.	.	.	.	8ryy	.	8ryy	.	.	.	.	.	.	.	8GJ)	.	.	.	8ddJ)	.	8bbJ)	.
=6	=6	=6	=6	=6	=6	=6	=6	=6	=6	=6	=6	=6	=6	=6	=6	=6	=6	=6	=6	=6	=6	=6	=6	=6	=6	=6	=6	=6	=6	=6	=6
2ryy	.	2ryy	.	8A'L	.	2ryy	.	2ryy	.	8ryy	4ryy	8ryy	4ryy	8ryy	.	8ryy	.	8ryy	4ryy	2ryy	.	2ryy	4ryy	8A'L	.	2ryy	.	8ee'L	.	8ccc#X'L	.
.	.	.	.	8Bn'J	4ryy	.	.	.	.	8ryy	.	8ryy	.	8ryy	4ryy	8ryy	4ryy	8ryy	.	.	.	.	.	8BX'J	4ryy	.	.	8ff#X'J	4ryy	8ddd#X'J	4ryy
.	.	.	.	[4c^	.	.	.	.	.	8ryy	.	8ryy	.	8ryy	.	8ryy	.	8ryy	.	.	.	.	.	[4c^	.	.	.	[4gg^	.	[4eee^	.
.	.	.	.	.	.	.	.	.	.	8ryy	.	8ryy	.	8ryy	.	8ryy	.	8ryy	.	.	.	.	.	.	.	.	.	.	.	.	.
=7	=7	=7	=7	=7	=7	=7	=7	=7	=7	=7	=7	=7	=7	=7	=7	=7	=7	=7	=7	=7	=7	=7	=7	=7	=7	=7	=7	=7	=7	=7	=7
2ryy	.	2ryy	.	8cL]	.	2ryy	.	2ryy	.	8ryy	.	8ryy	.	8ryy	.	8ryy	.	8ryy	.	2ryy	.	2ryy	.	8cL]	.	2ryy	.	8ggL]	.	8eeeL]	.
.	.	.	.	8d'J	.	.	.	.	.	8ryy	.	8ryy	.	8ryy	.	8ryy	.	8ryy	.	.	.	.	.	8d'J	.	.	.	8aa'J	.	8fff#X'J	.
.	.	.	.	[4e^	.	.	.	.	.	8ryy	.	8ryy	.	8ryy	.	8ryy	.	8ryy	.	.	.	.	.	[4eX^	.	.	.	[4bb^	.	[4ggg#X^	.
.	.	.	.	.	.	.	.	.	.	8ryy	.	8ryy	.	8ryy	.	8ryy	.	8ryy	.	.	.	.	.	.	.	.	.	.	.	.	.
=8	=8	=8	=8	=8	=8	=8	=8	=8	=8	=8	=8	=8	=8	=8	=8	=8	=8	=8	=8	=8	=8	=8	=8	=8	=8	=8	=8	=8	=8	=8	=8
2ryy	.	2ryy	.	8eL]	.	2ryy	.	2ryy	.	4ryy	.	4ryy	.	8ryy	.	8ryy	.	4ryy	.	2ryy	.	2ryy	.	8eL]	.	2ryy	.	8bbL]	.	8ggg#L]	.
.	.	.	.	8aJ	.	.	.	.	.	.	.	.	.	8ryy	.	8ryy	.	.	.	.	.	.	.	8aJ	.	.	.	8eeeJ	.	8cccc#XJ	.
.	.	.	.	(16aLL	.	.	.	.	.	8ryy	.	8ryy	.	8ryy	.	8ryy	.	8ryy	.	.	.	.	.	(16aLL	.	.	.	(16eeeLL	.	(16cccc#LL	.
.	.	.	.	16g#X	.	.	.	.	.	.	.	.	.	.	.	.	.	.	.	.	.	.	.	16g#X	.	.	.	16ddd#X	.	16bbb#X	.
.	.	.	.	16f#X	.	.	.	.	.	8ryy	4ryy	8ryy	4ryy	8ryy	.	8ryy	.	8ryy	4ryy	.	.	.	.	16f#X	.	.	.	16ccc#X	.	16aaa#X	.
.	.	.	.	16g#JJ)	4ryy	.	.	.	.	.	.	.	.	.	4ryy	.	4ryy	.	.	.	.	.	4ryy	16g#JJ)	4ryy	.	.	16ddd#JJ)	4ryy	16bbb#JJ)	4ryy
=	=	=	=	=	=	=	=	=	=	=	=	=	=	=	=	=	=	=	=	=	=	=	=	=	=	=	=	=	=	=	=
*-	*-	*-	*-	*-	*-	*-	*-	*-	*-	*-	*-	*-	*-	*-	*-	*-	*-	*-	*-	*-	*-	*-	*-	*-	*-	*-	*-	*-	*-	*-	*-
!!!system-decoration: [(s1,s2,s3,s4,s5,s6)][(s7[(s8,s9)]s10)]s11[([(s12,s13)]s14,s15,s16)]
!!!Xfilter: slurcheck
!!!RDF**kern: j = marked note, color="magenta", text="extra)"
